X:9720
T:Lloraba una Cabraliega (CT 257)
R:Xiraldilla
C:Tradicional
S:Msica Tradicional Asturiana, (C) Tello & Tito. Asturies, 2001.
S:http://pagina.de/MusTradAst <telloytito@asturies.org>
N:Xiraldilla, transcrita en Carrea, ayuntamiento de Cabrales.
N:El ltimo verso de la estrofa hace referencia a la fiesta que se celebra en Carrea el da 18 de Octubre, en honor de la Virgen de la Salud.
O:Carrea (Cabrales)
A:Asturies
Z:Cancioneru de Torner 257
M:3/8
L:1/8
Q:3/8=88
W:Cuando sal de Cabrales
W:lloraba una cabraliega,
W:porque perdi los corales
W:en la Salud de Carrea.
W:
W:Resaladina, sal al balcn,
W:que en los cristales est el tu amor.
W:T eres la luna, t eres el sol,
W:t eres la prenda que quiero yo.
K:G
|:GBc|d3|cBA|c3|BAG|B3|AGF|G z2:|
|:GBc|d2d|cBA|c3|BAG|B2B|AGF|G z2:|
